; generated by PrusaSlicer 2.2.0+ on 2022-02-21 at 08:04:01 UTC


;
;

;
;
; 

; external perimeters extrusion width = 0.45mm
; perimeters extrusion width = 0.45mm
; infill extrusion width = 0.45mm
; solid infill extrusion width = 0.45mm
; top infill extrusion width = 0.40mm
; first layer extrusion width = 0.42mm

M73 P0 R98
M201 X1250 Y1250 Z400 E5000 ; sets maximum accelerations, mm/sec^2
M203 X180 Y180 Z12 E80 ; sets maximum feedrates, mm/sec
M204 P1250 R1250 T1250 ; sets acceleration (P, T) and retract acceleration (R), mm/sec^2
M205 X8.00 Y8.00 Z2.00 E10.00 ; sets the jerk limits, mm/sec
M205 S0 T0 ; sets the minimum extruding and travel feed rate, mm/sec
M107
G90 ; use absolute coordinates
M83 ; extruder relative mode
M104 S170 ; set extruder temp for bed leveling
M140 S60 ; set bed temp
M109 R170 ; wait for bed leveling temp
M190 S60 ; wait for bed temp
G28 ; home all without mesh bed level
G29 ; mesh bed leveling 
M104 S215 ; set extruder temp
G92 E0.0
G1 Y-2.0 X179 F2400
G1 Z3 F720
M109 S215 ; wait for extruder temp

; intro line
G1 X170 F1000
G1 Z0.2 F720
G1 X110.0 E8.0 F900
M73 P0 R98
G1 X40.0 E10.0 F700
G92 E0.0

M221 S95 ; set flow
G21 ; set units to millimeters
G90 ; use absolute coordinates
M83 ; use relative distances for extrusion
M900 K0.2 ; Filament gcode LA 1.5
; ; Filament gcode LA 1.0
;BEFORE_LAYER_CHANGE
G92 E0.0
;0.2


G1 Z0.200 F9000.000
;AFTER_LAYER_CHANGE
;0.2
G1 E-3.20000 F4200.00000
G1 Z0.400 F9000.000
G1 X74.176 Y74.178
G1 Z0.200
G1 E3.20000 F2400.00000
M204 S800
G1 F1200.000
G1 X75.616 Y72.858 E0.06124
G1 X77.207 Y71.641 E0.06280
G1 X79.623 Y70.175 E0.08860
G1 X81.436 Y69.327 E0.06275
G1 X83.320 Y68.644 E0.06284
G1 X86.062 Y67.973 E0.08852
G1 X88.045 Y67.709 E0.06271
G1 X90.003 Y67.623 E0.06146
G1 X91.998 Y67.713 E0.06261
G1 X94.789 Y68.142 E0.08854
G1 X96.723 Y68.657 E0.06276
G1 X98.562 Y69.326 E0.06137
G1 X100.378 Y70.176 E0.06286
G1 X102.792 Y71.640 E0.08852
G1 X104.380 Y72.855 E0.06268
G1 X105.822 Y74.176 E0.06134
G1 X107.142 Y75.616 E0.06124
G1 X108.359 Y77.207 E0.06280
G1 X109.825 Y79.623 E0.08860
G1 X110.673 Y81.436 E0.06275
G1 X111.356 Y83.320 E0.06284
G1 X112.027 Y86.062 E0.08852
G1 X112.291 Y88.045 E0.06271
G1 X112.377 Y89.999 E0.06134
G1 X112.292 Y91.951 E0.06128
G1 X112.028 Y93.936 E0.06277
G1 X111.356 Y96.679 E0.08856
G1 X110.674 Y98.562 E0.06280
G1 X109.824 Y100.378 E0.06286
G1 X108.360 Y102.792 E0.08852
G1 X107.145 Y104.380 E0.06268
G1 X105.824 Y105.822 E0.06134
G1 X104.384 Y107.142 E0.06124
G1 X102.793 Y108.359 E0.06280
G1 X100.377 Y109.825 E0.08860
G1 X98.564 Y110.673 E0.06275
G1 X96.680 Y111.356 E0.06284
G1 X93.938 Y112.027 E0.08852
G1 X91.955 Y112.291 E0.06271
G1 X90.001 Y112.377 E0.06134
G1 X88.049 Y112.292 E0.06128
G1 X86.064 Y112.028 E0.06277
G1 X83.321 Y111.356 E0.08856
G1 X81.438 Y110.674 E0.06279
G1 X79.622 Y109.824 E0.06287
G1 X77.208 Y108.360 E0.08852
G1 X75.620 Y107.145 E0.06268
G1 X74.178 Y105.824 E0.06134
G1 X72.858 Y104.384 E0.06124
G1 X71.641 Y102.793 E0.06280
G1 X70.175 Y100.377 E0.08860
G1 X69.327 Y98.564 E0.06275
G1 X68.644 Y96.680 E0.06284
G1 X67.973 Y93.938 E0.08852
G1 X67.709 Y91.955 E0.06271
G1 X67.623 Y89.999 E0.06141
G1 X67.713 Y88.002 E0.06266
G1 X68.142 Y85.211 E0.08854
G1 X68.657 Y83.277 E0.06276
G1 X69.326 Y81.438 E0.06135
G1 X70.176 Y79.622 E0.06287
G1 X71.640 Y77.208 E0.08852
G1 X72.855 Y75.620 E0.06268
G1 X74.136 Y74.222 E0.05946
M204 S1250
G1 E-2.24000 F4200.00000
G1 F7200.000
G1 X75.346 Y73.107 E-0.91200
G1 E-0.04800 F4200.00000
G1 Z0.400 F9000.000
G1 X76.148 Y76.148
G1 Z0.200
G1 E3.20000 F2400.00000
M204 S800
G1 F1200.000
G1 X76.765 Y75.557 E0.02680
G1 X77.408 Y74.993 E0.02680
G1 X78.074 Y74.458 E0.02680
G1 X78.763 Y73.953 E0.02677
G1 X79.474 Y73.478 E0.02683
G1 X80.205 Y73.035 E0.02680
G1 X80.954 Y72.624 E0.02680
G1 X81.721 Y72.246 E0.02680
G1 X82.503 Y71.901 E0.02680
G1 X83.300 Y71.592 E0.02680
G1 X84.109 Y71.317 E0.02680
G1 X84.930 Y71.078 E0.02680
G1 X85.760 Y70.874 E0.02680
G1 X86.598 Y70.708 E0.02680
G1 X87.443 Y70.578 E0.02680
G1 X88.293 Y70.485 E0.02680
G1 X89.145 Y70.429 E0.02680
G1 X90.000 Y70.410 E0.02680
G1 X90.854 Y70.429 E0.02677
G1 X91.707 Y70.485 E0.02683
G1 X92.557 Y70.578 E0.02680
G1 X93.402 Y70.708 E0.02680
G1 X94.240 Y70.874 E0.02680
G1 X95.070 Y71.078 E0.02680
G1 X95.891 Y71.317 E0.02680
G1 X96.700 Y71.592 E0.02680
G1 X97.497 Y71.901 E0.02680
G1 X98.279 Y72.246 E0.02680
G1 X99.046 Y72.624 E0.02680
G1 X99.795 Y73.035 E0.02680
G1 X100.526 Y73.478 E0.02680
G1 X101.236 Y73.953 E0.02680
G1 X101.926 Y74.458 E0.02680
G1 X102.592 Y74.993 E0.02680
G1 X103.235 Y75.557 E0.02680
G1 X103.852 Y76.148 E0.02680
G1 X104.443 Y76.765 E0.02680
G1 X105.007 Y77.408 E0.02680
G1 X105.542 Y78.074 E0.02680
G1 X106.047 Y78.763 E0.02677
G1 X106.522 Y79.474 E0.02683
G1 X106.965 Y80.205 E0.02680
G1 X107.376 Y80.954 E0.02680
G1 X107.754 Y81.721 E0.02680
G1 X108.099 Y82.503 E0.02680
G1 X108.408 Y83.300 E0.02680
G1 X108.683 Y84.109 E0.02680
G1 X108.922 Y84.930 E0.02680
G1 X109.126 Y85.760 E0.02680
G1 X109.292 Y86.597 E0.02677
G1 X109.422 Y87.443 E0.02683
G1 X109.515 Y88.293 E0.02680
G1 X109.571 Y89.145 E0.02680
G1 X109.590 Y90.000 E0.02680
G1 X109.571 Y90.855 E0.02680
G1 X109.515 Y91.707 E0.02680
G1 X109.422 Y92.557 E0.02680
G1 X109.292 Y93.401 E0.02677
G1 X109.126 Y94.240 E0.02683
G1 X108.922 Y95.070 E0.02680
G1 X108.683 Y95.891 E0.02680
G1 X108.408 Y96.700 E0.02680
G1 X108.099 Y97.497 E0.02680
G1 X107.754 Y98.279 E0.02680
G1 X107.376 Y99.046 E0.02680
G1 X106.965 Y99.795 E0.02680
G1 X106.522 Y100.526 E0.02680
G1 X106.047 Y101.236 E0.02680
G1 X105.542 Y101.926 E0.02680
G1 X105.007 Y102.592 E0.02680
G1 X104.443 Y103.235 E0.02680
G1 X103.852 Y103.852 E0.02680
G1 X103.235 Y104.443 E0.02680
G1 X102.592 Y105.007 E0.02680
G1 X101.926 Y105.542 E0.02680
G1 X101.237 Y106.047 E0.02677
G1 X100.526 Y106.522 E0.02683
G1 X99.795 Y106.965 E0.02680
G1 X99.046 Y107.376 E0.02680
G1 X98.279 Y107.754 E0.02680
G1 X97.497 Y108.099 E0.02680
G1 X96.700 Y108.408 E0.02680
G1 X95.891 Y108.683 E0.02680
G1 X95.070 Y108.922 E0.02680
G1 X94.240 Y109.126 E0.02680
G1 X93.403 Y109.292 E0.02677
G1 X92.557 Y109.422 E0.02683
G1 X91.707 Y109.515 E0.02680
G1 X90.855 Y109.571 E0.02680
G1 X90.000 Y109.590 E0.02680
G1 X89.145 Y109.571 E0.02680
G1 X88.293 Y109.515 E0.02680
G1 X87.443 Y109.422 E0.02680
G1 X86.599 Y109.292 E0.02677
G1 X85.760 Y109.126 E0.02683
G1 X84.930 Y108.922 E0.02680
G1 X84.109 Y108.683 E0.02680
G1 X83.300 Y108.408 E0.02680
G1 X82.503 Y108.099 E0.02680
G1 X81.721 Y107.754 E0.02680
G1 X80.954 Y107.376 E0.02680
G1 X80.205 Y106.965 E0.02680
G1 X79.474 Y106.522 E0.02680
G1 X78.764 Y106.047 E0.02680
G1 X78.074 Y105.542 E0.02680
G1 X77.408 Y105.007 E0.02680
G1 X76.765 Y104.443 E0.02680
G1 X76.148 Y103.852 E0.02680
G1 X75.557 Y103.235 E0.02680
G1 X74.993 Y102.592 E0.02680
G1 X74.458 Y101.926 E0.02680
G1 X73.953 Y101.237 E0.02677
G1 X73.478 Y100.526 E0.02683
G1 X73.035 Y99.795 E0.02680
G1 X72.624 Y99.046 E0.02680
G1 X72.246 Y98.279 E0.02680
G1 X71.901 Y97.497 E0.02680
G1 X71.592 Y96.700 E0.02680
G1 X71.317 Y95.891 E0.02680
G1 X71.078 Y95.070 E0.02680
G1 X70.874 Y94.240 E0.02680
G1 X70.708 Y93.403 E0.02677
G1 X70.578 Y92.557 E0.02683
G1 X70.485 Y91.707 E0.02680
G1 X70.429 Y90.855 E0.02680
G1 X70.410 Y90.000 E0.02680
G1 X70.429 Y89.145 E0.02680
G1 X70.485 Y88.293 E0.02680
G1 X70.578 Y87.443 E0.02680
G1 X70.708 Y86.599 E0.02677
G1 X70.874 Y85.760 E0.02683
G1 X71.078 Y84.930 E0.02680
G1 X71.317 Y84.109 E0.02680
G1 X71.592 Y83.300 E0.02680
G1 X71.901 Y82.503 E0.02680
G1 X72.246 Y81.721 E0.02680
G1 X72.624 Y80.954 E0.02680
G1 X73.035 Y80.205 E0.02680
G1 X73.478 Y79.474 E0.02680
G1 X73.953 Y78.764 E0.02680
G1 X74.458 Y78.074 E0.02680
G1 X74.993 Y77.408 E0.02680
G1 X75.557 Y76.765 E0.02680
G1 X76.106 Y76.191 E0.02492
M204 S1250
G1 E-2.24000 F4200.00000
G1 F7200.000
G1 X76.765 Y75.557 E-0.50687
G1 X77.315 Y75.075 E-0.40513
G1 E-0.04800 F4200.00000
G1 Z0.400 F9000.000
G1 X105.467 Y78.164
G1 Z0.200
G1 E3.20000 F2400.00000
M204 S800
G1 F1200.000
G1 X103.627 Y76.324 E0.08188
G1 X103.044 Y75.765 E0.02544
G1 X102.410 Y75.210 E0.02652
G1 X101.753 Y74.683 E0.02651
G1 X101.074 Y74.185 E0.02651
G1 X100.708 Y73.940 E0.01387
G1 X106.060 Y79.292 E0.23827
G1 X106.283 Y79.626 E0.01265
G1 X106.892 Y80.660 E0.03775
G1 X99.340 Y73.108 E0.33618
G1 X98.915 Y72.874 E0.01527
G1 X98.237 Y72.540 E0.02378
G1 X107.460 Y81.763 E0.41053
G1 X107.878 Y82.716 E0.03279
G1 X97.284 Y72.122 E0.47162
G1 X96.422 Y71.796 E0.02899
G1 X108.204 Y83.578 E0.52447
G1 X108.466 Y84.375 E0.02642
G1 X95.625 Y71.534 E0.57163
G1 X94.877 Y71.322 E0.02447
G1 X108.678 Y85.123 E0.61436
G1 X108.851 Y85.831 E0.02295
G1 X94.169 Y71.149 E0.65358
G1 X93.501 Y71.016 E0.02145
G1 X108.984 Y86.499 E0.68925
G1 X109.090 Y87.140 E0.02043
G1 X92.860 Y70.910 E0.72245
G1 X92.242 Y70.828 E0.01963
G1 X109.172 Y87.758 E0.75366
G1 X109.236 Y88.357 E0.01897
G1 X91.643 Y70.765 E0.78314
G1 X91.079 Y70.736 E0.01778
G1 X109.274 Y88.930 E0.80992
G1 X109.296 Y89.488 E0.01756
G1 X90.515 Y70.707 E0.83602
G1 X89.978 Y70.705 E0.01690
G1 X109.306 Y90.033 E0.86039
G1 X109.295 Y90.557 E0.01650
G1 X89.447 Y70.709 E0.88354
G1 X88.929 Y70.726 E0.01632
G1 X109.274 Y91.071 E0.90567
G1 X109.241 Y91.574 E0.01585
G1 X88.426 Y70.759 E0.92657
G1 X87.939 Y70.808 E0.01540
G1 X109.192 Y92.061 E0.94608
G1 X109.138 Y92.542 E0.01525
G1 X87.458 Y70.862 E0.96512
G1 X86.994 Y70.933 E0.01478
G1 X109.067 Y93.006 E0.98260
G1 X108.991 Y93.466 E0.01466
G1 X86.534 Y71.009 E0.99968
G1 X86.088 Y71.098 E0.01433
G1 X108.902 Y93.912 E1.01560
G1 X108.807 Y94.352 E0.01417
G1 X85.648 Y71.193 E1.03094
G1 X85.218 Y71.298 E0.01394
G1 X108.702 Y94.782 E1.04540
G1 X108.589 Y95.205 E0.01376
G1 X84.795 Y71.411 E1.05916
G1 X84.381 Y71.532 E0.01359
G1 X108.468 Y95.619 E1.07224
G1 X108.339 Y96.026 E0.01342
G1 X83.974 Y71.661 E1.08459
G1 X83.575 Y71.797 E0.01329
G1 X108.203 Y96.425 E1.09634
G1 X108.060 Y96.817 E0.01313
G1 X83.183 Y71.940 E1.10739
M73 P1 R97
G1 X82.797 Y72.090 E0.01302
G1 X107.910 Y97.203 E1.11788
G1 X107.753 Y97.581 E0.01289
G1 X82.419 Y72.247 E1.12773
G1 X82.047 Y72.411 E0.01279
G1 X107.589 Y97.953 E1.13700
G1 X107.420 Y98.319 E0.01269
G1 X81.681 Y72.580 E1.14574
G1 X81.323 Y72.757 E0.01258
G1 X107.243 Y98.677 E1.15383
G1 X107.062 Y99.031 E0.01252
G1 X80.969 Y72.938 E1.16154
G1 X80.623 Y73.128 E0.01241
G1 X106.872 Y99.377 E1.16848
G1 X106.680 Y99.720 E0.01238
G1 X80.280 Y73.320 E1.17521
G1 X79.947 Y73.522 E0.01227
G1 X106.478 Y100.053 E1.18104
G1 X106.275 Y100.386 E0.01226
G1 X79.614 Y73.725 E1.18683
G1 X79.293 Y73.939 E0.01215
G1 X106.061 Y100.707 E1.19157
G1 X105.846 Y101.028 E0.01215
G1 X78.972 Y74.154 E1.19631
G1 X78.661 Y74.379 E0.01207
G1 X105.621 Y101.339 E1.20013
G1 X105.395 Y101.647 E0.01206
G1 X78.353 Y74.605 E1.20380
G1 X78.247 Y74.683 E0.00413
G1 X78.051 Y74.839 E0.00788
G1 X105.161 Y101.949 E1.20677
G1 X104.922 Y102.246 E0.01199
G1 X77.754 Y75.078 E1.20938
G1 X77.463 Y75.321 E0.01196
G1 X104.679 Y102.537 E1.21152
G1 X104.429 Y102.823 E0.01194
G1 X77.177 Y75.571 E1.21309
G1 X76.895 Y75.824 E0.01193
G1 X104.176 Y103.105 E1.21441
G1 X103.914 Y103.379 E0.01192
G1 X76.621 Y76.086 E1.21493
G1 X76.348 Y76.348 E0.01192
G1 X103.652 Y103.652 E1.21545
G1 X103.379 Y103.914 E0.01192
G1 X76.086 Y76.621 E1.21493
G1 X75.824 Y76.895 E0.01192
G1 X103.105 Y104.176 E1.21441
G1 X102.822 Y104.429 E0.01193
G1 X75.571 Y77.178 E1.21309
G1 X75.321 Y77.463 E0.01194
G1 X102.537 Y104.679 E1.21152
G1 X102.246 Y104.922 E0.01196
G1 X75.078 Y77.754 E1.20938
G1 X74.839 Y78.051 E0.01199
G1 X101.949 Y105.161 E1.20677
G1 X101.647 Y105.395 E0.01201
G1 X74.605 Y78.353 E1.20380
G1 X74.379 Y78.661 E0.01206
G1 X101.339 Y105.621 E1.20013
G1 X101.028 Y105.846 E0.01207
G1 X74.154 Y78.972 E1.19631
G1 X73.939 Y79.293 E0.01215
G1 X100.707 Y106.061 E1.19157
G1 X100.386 Y106.275 E0.01215
G1 X73.725 Y79.614 E1.18683
M73 P2 R96
G1 X73.522 Y79.947 E0.01226
G1 X100.053 Y106.478 E1.18104
G1 X99.720 Y106.680 E0.01227
G1 X73.320 Y80.280 E1.17521
G1 X73.128 Y80.623 E0.01238
G1 X99.377 Y106.872 E1.16848
G1 X99.031 Y107.062 E0.01241
G1 X72.938 Y80.969 E1.16154
G1 X72.757 Y81.323 E0.01252
G1 X98.677 Y107.243 E1.15383
G1 X98.319 Y107.420 E0.01258
G1 X72.580 Y81.681 E1.14574
G1 X72.411 Y82.047 E0.01269
G1 X97.953 Y107.589 E1.13700
G1 X97.581 Y107.753 E0.01279
G1 X72.247 Y82.419 E1.12773
G1 X72.090 Y82.797 E0.01289
G1 X97.203 Y107.910 E1.11787
G1 X96.817 Y108.060 E0.01302
G1 X71.940 Y83.183 E1.10739
G1 X71.797 Y83.575 E0.01313
G1 X96.425 Y108.203 E1.09634
G1 X96.026 Y108.339 E0.01329
G1 X71.661 Y83.974 E1.08459
G1 X71.532 Y84.381 E0.01342
G1 X95.619 Y108.468 E1.07224
G1 X95.205 Y108.589 E0.01359
G1 X71.411 Y84.795 E1.05916
G1 X71.298 Y85.218 E0.01376
G1 X94.782 Y108.702 E1.04540
G1 X94.352 Y108.807 E0.01394
G1 X71.193 Y85.648 E1.03094
G1 X71.098 Y86.088 E0.01417
G1 X93.912 Y108.902 E1.01560
G1 X93.466 Y108.991 E0.01433
G1 X71.009 Y86.534 E0.99968
G1 X70.933 Y86.994 E0.01466
G1 X93.006 Y109.067 E0.98260
G1 X92.542 Y109.138 E0.01478
G1 X70.862 Y87.458 E0.96512
G1 X70.808 Y87.939 E0.01525
G1 X92.061 Y109.192 E0.94608
G1 X91.574 Y109.241 E0.01540
G1 X70.759 Y88.426 E0.92656
G1 X70.726 Y88.929 E0.01585
G1 X91.071 Y109.274 E0.90567
G1 X90.557 Y109.295 E0.01620
G1 X70.705 Y89.443 E0.88372
G1 X70.694 Y89.967 E0.01650
G1 X90.033 Y109.306 E0.86091
G1 X89.488 Y109.296 E0.01718
G1 X70.704 Y90.512 E0.83615
G1 X70.726 Y91.070 E0.01756
G1 X88.930 Y109.274 E0.81035
G1 X88.357 Y109.236 E0.01807
G1 X70.764 Y91.643 E0.78317
G1 X70.828 Y92.242 E0.01897
G1 X87.758 Y109.172 E0.75366
G1 X87.140 Y109.090 E0.01963
G1 X70.910 Y92.860 E0.72245
G1 X71.016 Y93.501 E0.02043
G1 X86.499 Y108.984 E0.68925
G1 X85.831 Y108.851 E0.02145
G1 X71.149 Y94.169 E0.65358
G1 X71.322 Y94.877 E0.02295
G1 X85.123 Y108.678 E0.61436
G1 X84.375 Y108.466 E0.02447
G1 X71.534 Y95.625 E0.57163
G1 X71.796 Y96.422 E0.02642
G1 X83.578 Y108.204 E0.52447
G1 X82.716 Y107.878 E0.02899
G1 X72.122 Y97.284 E0.47161
G1 X72.540 Y98.238 E0.03279
G1 X81.762 Y107.460 E0.41052
G1 X81.085 Y107.126 E0.02378
G1 X80.660 Y106.892 E0.01527
G1 X73.108 Y99.340 E0.33617
G1 X73.717 Y100.374 E0.03775
G1 X73.940 Y100.708 E0.01265
G1 X79.292 Y106.060 E0.23826
G1 X78.926 Y105.815 E0.01387
G1 X78.247 Y105.317 E0.02651
G1 X77.590 Y104.790 E0.02651
G1 X76.956 Y104.235 E0.02652
G1 X76.372 Y103.675 E0.02547
G1 X74.533 Y101.836 E0.08184
M204 S1250
M106 S255
;BEFORE_LAYER_CHANGE
G92 E0.0
;0.35


G1 Z0.350 F9000.000
;AFTER_LAYER_CHANGE
;0.35
M104 S210 ; set temperature
G1 E-3.20000 F4200.00000
G1 Z0.550 F9000.000
G1 X72.247 Y103.585
G1 Z0.350
G1 E3.20000 F2400.00000
G1 X71.641 Y102.793 E0.02413
G1 X70.175 Y100.377 E0.06834
G1 X69.327 Y98.564 E0.04840
G1 X68.644 Y96.680 E0.04847
G1 X67.973 Y93.938 E0.06828
G1 X67.709 Y91.955 E0.04837
G1 X67.623 Y89.999 E0.04737
G1 X67.713 Y88.002 E0.04833
G1 X68.142 Y85.211 E0.06829
G1 X68.657 Y83.277 E0.04841
G1 X69.326 Y81.438 E0.04733
G1 X70.176 Y79.622 E0.04850
G1 X71.640 Y77.208 E0.06828
G1 X72.855 Y75.620 E0.04835
G1 X74.176 Y74.178 E0.04731
G1 X75.616 Y72.858 E0.04724
G1 X77.207 Y71.641 E0.04844
G1 X79.623 Y70.175 E0.06834
G1 X81.436 Y69.327 E0.04840
G1 X83.320 Y68.644 E0.04847
G1 X86.062 Y67.973 E0.06828
G1 X88.045 Y67.709 E0.04837
G1 X90.003 Y67.623 E0.04740
G1 X91.998 Y67.713 E0.04830
G1 X94.789 Y68.142 E0.06829
G1 X96.723 Y68.657 E0.04841
G1 X98.562 Y69.326 E0.04734
G1 X100.378 Y70.176 E0.04849
G1 X102.792 Y71.640 E0.06828
G1 X104.380 Y72.855 E0.04835
G1 X105.822 Y74.176 E0.04731
G1 X107.142 Y75.616 E0.04724
G1 X108.359 Y77.207 E0.04844
G1 X109.825 Y79.623 E0.06834
G1 X110.673 Y81.436 E0.04840
G1 X111.356 Y83.320 E0.04847
G1 X112.027 Y86.062 E0.06828
G1 X112.291 Y88.045 E0.04837
G1 X112.377 Y89.999 E0.04731
G1 X112.292 Y91.951 E0.04726
G1 X112.028 Y93.936 E0.04841
G1 X111.356 Y96.679 E0.06831
G1 X110.674 Y98.562 E0.04844
G1 X109.824 Y100.378 E0.04849
G1 X108.360 Y102.792 E0.06828
G1 X107.145 Y104.380 E0.04835
M73 P3 R95
G1 X105.824 Y105.822 E0.04731
G1 X104.384 Y107.142 E0.04724
G1 X102.793 Y108.359 E0.04844
G1 X100.377 Y109.825 E0.06834
G1 X98.564 Y110.673 E0.04840
G1 X96.680 Y111.356 E0.04847
G1 X93.938 Y112.027 E0.06828
G1 X91.955 Y112.291 E0.04837
